assets/icons/box.svg

<svg width="24" height="25" viewBox="0 0 24 25" fill="none" xmlns="http://www.w3.org/2000/svg">
<path d="M19.3477 8.07383C19.3713 8.0601 19.3908 8.04036 19.4044 8.0167C19.418 7.99303 19.4252 7.96616 19.4252 7.93889C19.4252 7.91156 19.418 7.88476 19.4044 7.86103C19.3908 7.83736 19.3713 7.81769 19.3477 7.80389L13.3813 4.33751C12.9995 4.11623 12.5661 3.99969 12.1248 3.99969C11.6835 3.99969 11.2501 4.11623 10.8683 4.33751L4.90314 7.80389C4.87955 7.81769 4.85999 7.83736 4.84639 7.86103C4.83279 7.88476 4.82563 7.91156 4.82563 7.93889C4.82563 7.96616 4.83279 7.99303 4.84639 8.0167C4.85999 8.04036 4.87955 8.0601 4.90314 8.07383L12.0469 12.2762C12.0709 12.2904 12.0983 12.2978 12.1262 12.2978C12.1541 12.2978 12.1815 12.2904 12.2055 12.2762L19.3477 8.07383ZM4.23439 9.13676C4.21057 9.12296 4.18353 9.11576 4.15601 9.11576C4.1285 9.11583 4.10149 9.12316 4.0777 9.13696C4.05392 9.15083 4.03421 9.1707 4.02057 9.19456C4.00693 9.2185 3.99984 9.24556 4.00001 9.27303V16.0656C4.00061 16.393 4.08688 16.7144 4.25025 16.9981C4.41363 17.2818 4.64842 17.5177 4.93127 17.6824L11.2656 21.4805C11.2894 21.4942 11.3163 21.5014 11.3437 21.5014C11.3711 21.5014 11.3981 21.4942 11.4218 21.4805C11.4455 21.4668 11.4653 21.4471 11.479 21.4234C11.4927 21.3996 11.5 21.3728 11.5 21.3453V13.4645C11.5 13.4371 11.4927 13.4102 11.479 13.3864C11.4653 13.3627 11.4456 13.343 11.4219 13.3293L4.23439 9.13676ZM12.75 13.4918V21.3434C12.75 21.3708 12.7573 21.3977 12.771 21.4214C12.7847 21.4452 12.8045 21.4649 12.8282 21.4786C12.8519 21.4922 12.8789 21.4995 12.9063 21.4994C12.9337 21.4994 12.9607 21.4922 12.9844 21.4785L19.3183 17.6805C19.601 17.516 19.8357 17.2804 19.9991 16.997C20.1625 16.7138 20.2491 16.3927 20.25 16.0656V9.27303C20.2499 9.2457 20.2426 9.21883 20.2289 9.1951C20.2151 9.17143 20.1954 9.15183 20.1717 9.13816C20.1479 9.12449 20.121 9.11736 20.0936 9.11736C20.0663 9.11736 20.0393 9.12463 20.0156 9.1383L12.8281 13.357C12.8045 13.3707 12.7848 13.3904 12.7711 13.414C12.7573 13.4376 12.7501 13.4645 12.75 13.4918Z" fill="white"/>
</svg>

<svg xmlns="http://www.w3.org/2000/svg" width="24" height="25" fill="none" viewBox="0 0 24 25"><path fill="#fff" d="M19.348 8.074a.156.156 0 0 0 0-.27L13.38 4.338a2.5 2.5 0 0 0-2.513 0L4.903 7.804a.157.157 0 0 0 0 .27l7.144 4.202a.16.16 0 0 0 .159 0zM4.234 9.137A.156.156 0 0 0 4 9.273v6.793a1.88 1.88 0 0 0 .931 1.616l6.335 3.799a.156.156 0 0 0 .234-.136v-7.88a.16.16 0 0 0-.078-.136zm8.516 4.355v7.851a.156.156 0 0 0 .234.136l6.334-3.799a1.87 1.87 0 0 0 .932-1.614V9.273a.157.157 0 0 0-.156-.156.16.16 0 0 0-.078.021l-7.188 4.219a.16.16 0 0 0-.078.135"/></svg>
